packages/ffe-icons/icons/filled/sm/safety_divider.svg

<svg xmlns="http://www.w3.org/2000/svg" height="20" viewBox="0 -960 960 960" width="20"><path d="M480.211-250.001q-10.98 0-18.595-7.465-7.615-7.465-7.615-18.534v-408q0-11.069 7.404-18.534 7.405-7.465 18.384-7.465 10.98 0 18.595 7.465 7.615 7.465 7.615 18.534v408q0 11.069-7.404 18.534-7.405 7.465-18.384 7.465Zm-422.21-96v-24.922q0-18.538 10.461-32.769 10.462-14.23 27.568-22.124 21.663-9.953 45.763-15.068 24.1-5.115 50.077-5.115 25.976 0 49.991 5.093 24.014 5.094 46.293 15.137 16.922 7.847 27.384 22.077 10.461 14.231 10.461 32.769v24.922H58.001Zm576 0v-24.922q0-18.538 10.461-32.769 10.462-14.23 27.568-22.124 21.663-9.953 45.763-15.068 24.1-5.115 50.077-5.115 25.976 0 49.991 5.093 24.014 5.094 46.293 15.137 16.922 7.847 27.384 22.077 10.461 14.231 10.461 32.769v24.922H634.001Zm-442.213-144q-25.942 0-43.864-18.135-17.923-18.135-17.923-44.076 0-25.942 18.135-43.864 18.135-17.923 44.076-17.923 25.942 0 43.864 18.135 17.923 18.135 17.923 44.076 0 25.942-18.135 43.864-18.135 17.923-44.076 17.923Zm576 0q-25.942 0-43.864-18.135-17.923-18.135-17.923-44.076 0-25.942 18.135-43.864 18.135-17.923 44.076-17.923 25.942 0 43.864 18.135 17.923 18.135 17.923 44.076 0 25.942-18.135 43.864-18.135 17.923-44.076 17.923Z"/></svg>

<svg xmlns="http://www.w3.org/2000/svg" height="20" viewBox="0 -960 960 960" width="20"><path d="M480.21-250q-10.98 0-18.59-7.47Q454-264.93 454-276v-408q0-11.07 7.41-18.53 7.4-7.47 18.38-7.47 10.98 0 18.59 7.47Q506-695.07 506-684v408q0 11.07-7.41 18.53-7.4 7.47-18.38 7.47ZM58-346v-24.92q0-18.54 10.46-32.77 10.46-14.23 27.57-22.13 21.66-9.95 45.76-15.06 24.1-5.12 50.08-5.12 25.98 0 49.99 5.09 24.02 5.1 46.29 15.14 16.93 7.85 27.39 22.08Q326-389.46 326-370.92V-346H58Zm576 0v-24.92q0-18.54 10.46-32.77 10.46-14.23 27.57-22.13 21.66-9.95 45.76-15.06 24.1-5.12 50.08-5.12 25.98 0 49.99 5.09 24.02 5.1 46.29 15.14 16.93 7.85 27.39 22.08Q902-389.46 902-370.92V-346H634ZM191.79-490q-25.94 0-43.87-18.14Q130-526.27 130-552.21t18.14-43.87Q166.27-614 192.21-614t43.87 18.14Q254-577.73 254-551.79t-18.14 43.87Q217.73-490 191.79-490Zm576 0q-25.94 0-43.87-18.14Q706-526.27 706-552.21t18.14-43.87Q742.27-614 768.21-614t43.87 18.14Q830-577.73 830-551.79t-18.14 43.87Q793.73-490 767.79-490Z"/></svg>
